plasma/desktoptheme/Materia/icons/sirikali.svg

<svg xmlns="http://www.w3.org/2000/svg" width="32" height="32" version="1.1">
 <g id="sirikali">
  <rect style="opacity:0.001" width="32" height="32" x="0" y="0"/>
  <rect style="opacity:0.2" width="28" height="28" x="2" y="3" rx="1.4" ry="1.4"/>
  <rect style="fill:#1493ca" width="28" height="28" x="2" y="2" rx="1.4" ry="1.4"/>
  <path style="opacity:0.2;fill:#ffffff" d="M 3.4003906,2 C 2.6247906,2 2,2.6247906 2,3.4003906 v 1 C 2,3.6247906 2.6247906,3 3.4003906,3 H 28.599609 C 29.375209,3 30,3.6247906 30,4.4003906 v -1 C 30,2.6247906 29.375209,2 28.599609,2 Z"/>
  <path style="opacity:0.2" d="m 16,8 c -2.8204,0 -5,2.293378 -5,5.142578 V 15 H 9.890625 C 9.397425,15 9,15.472703 9,15.970703 v 9.128906 C 9,25.597609 9.397425,26 9.890625,26 h 12.21875 C 22.602375,26 23,25.597609 23,25.099609 V 15.970703 C 23,15.472703 22.601375,14.968 22.109375,15 H 21 V 13.142578 C 21,10.293278 18.82,8 16,8 Z m 0,2 c 1.7627,0 3,1.361778 3,3.142578 V 15 H 13 V 13.142578 C 13,11.361578 14.237,10 16,10 Z m 0,7 a 2,2 0 0 1 2,2 2,2 0 0 1 -1.048828,1.757812 C 16.971356,20.837257 17,20.914103 17,21 v 2 c 0,0.554 -0.446,1 -1,1 -0.554,0 -1,-0.446 -1,-1 v -2 c 0,-0.08523 0.02895,-0.161347 0.04883,-0.240234 A 2,2 0 0 1 14,19 2,2 0 0 1 16,17 Z"/>
  <path style="fill:#ffffff" d="m 16,7 c -2.8204,0 -5,2.2933782 -5,5.142578 V 14 H 9.890625 C 9.397425,14 9,14.472703 9,14.970703 v 9.128906 C 9,24.597609 9.397425,25 9.890625,25 h 12.21875 C 22.602375,25 23,24.597609 23,24.099609 V 14.970703 C 23,14.472703 22.601375,13.968 22.109375,14 H 21 V 12.142578 C 21,9.2932783 18.82,7 16,7 Z m 0,2 c 1.7627,0 3,1.361778 3,3.142578 V 14 H 13 V 12.142578 C 13,10.361578 14.237,9 16,9 Z m 0,7 a 2,2 0 0 1 2,2 2,2 0 0 1 -1.048828,1.757812 C 16.971356,19.837257 17,19.914103 17,20 v 2 c 0,0.554 -0.446,1 -1,1 -0.554,0 -1,-0.446 -1,-1 v -2 c 0,-0.08523 0.02895,-0.161347 0.04883,-0.240234 A 2,2 0 0 1 14,18 2,2 0 0 1 16,16 Z"/>
 </g>
 <g id="22-22-sirikali" transform="translate(27,5)">
  <rect style="opacity:0.001" width="22" height="22" x="5" y="5"/>
  <path style="fill:#dfdfdf" d="m 16,8 c -2.6592,0 -3.86691,2.159645 -4,4.923828 V 15 H 10.839843 C 10.374843,15 10,15.454719 10,15.931641 v 7.207031 C 10,23.615595 10.374844,24 10.839843,24 H 21.160156 C 21.625156,24 22,23.615595 22,23.138672 V 15.931641 C 22,15.454719 21.625156,15 21.160156,15 H 20 V 12.923828 C 20,10.196443 18.6592,8 16,8 Z m 0,2 c 1.385,0 2,1.330644 2,2.984375 V 15 H 14 V 12.984375 C 14,11.330644 14.615,10 16,10 Z m 0,7 c 1.104568,0 2,0.91789 2,2.050781 -9.29e-4,0.740636 -0.391682,1.408495 -1,1.769531 V 22 a 1,1 0 0 1 -1,1 1,1 0 0 1 -1,-1 V 20.820312 C 14.39169,20.459275 14.000965,19.791417 14,19.050781 14,17.91789 14.895432,17.000001 16,17 Z"/>
 </g>
</svg>

<?xml version="1.0" encoding="UTF-8"?>
<svg width="32" height="32" version="1.1" xmlns="http://www.w3.org/2000/svg">
 <g id="sirikali">
  <rect width="32" height="32" opacity=".001"/>
  <rect x="2" y="3" width="28" height="28" rx="1.4" ry="1.4" opacity=".2"/>
  <rect x="2" y="2" width="28" height="28" rx="1.4" ry="1.4" fill="#1493ca"/>
  <path d="m3.4004 2c-0.7756 0-1.4004 0.62479-1.4004 1.4004v1c0-0.7756 0.62479-1.4004 1.4004-1.4004h25.199c0.7756 0 1.4004 0.62479 1.4004 1.4004v-1c0-0.7756-0.62479-1.4004-1.4004-1.4004z" fill="#fff" opacity=".2"/>
  <path d="m16 8c-2.8204 0-5 2.2934-5 5.1426v1.8574h-1.1094c-0.4932 0-0.89062 0.4727-0.89062 0.9707v9.1289c0 0.498 0.39742 0.90039 0.89062 0.90039h12.219c0.493 0 0.89062-0.40239 0.89062-0.90039v-9.1289c0-0.498-0.39862-1.0027-0.89062-0.9707h-1.1094v-1.8574c0-2.8493-2.18-5.1426-5-5.1426zm0 2c1.7627 0 3 1.3618 3 3.1426v1.8574h-6v-1.8574c0-1.781 1.237-3.1426 3-3.1426zm0 7a2 2 0 0 1 2 2 2 2 0 0 1-1.0488 1.7578c0.020184 0.079445 0.048828 0.15629 0.048828 0.24219v2c0 0.554-0.446 1-1 1s-1-0.446-1-1v-2c0-0.08523 0.02895-0.16135 0.04883-0.24023a2 2 0 0 1-1.0488-1.7598 2 2 0 0 1 2-2z" opacity=".2"/>
  <path d="m16 7c-2.8204 0-5 2.2934-5 5.1426v1.8574h-1.1094c-0.4932 0-0.89062 0.4727-0.89062 0.9707v9.1289c0 0.498 0.39742 0.90039 0.89062 0.90039h12.219c0.493 0 0.89062-0.40239 0.89062-0.90039v-9.1289c0-0.498-0.39862-1.0027-0.89062-0.9707h-1.1094v-1.8574c0-2.8493-2.18-5.1426-5-5.1426zm0 2c1.7627 0 3 1.3618 3 3.1426v1.8574h-6v-1.8574c0-1.781 1.237-3.1426 3-3.1426zm0 7a2 2 0 0 1 2 2 2 2 0 0 1-1.0488 1.7578c0.020184 0.079445 0.048828 0.15629 0.048828 0.24219v2c0 0.554-0.446 1-1 1s-1-0.446-1-1v-2c0-0.08523 0.02895-0.16135 0.04883-0.24023a2 2 0 0 1-1.0488-1.7598 2 2 0 0 1 2-2z" fill="#fff"/>
 </g>
 <g id="22-22-sirikali" transform="translate(27,5)">
  <rect x="5" y="5" width="22" height="22" opacity=".001"/>
  <path d="m16 8c-2.6592 0-3.8669 2.1596-4 4.9238v2.0762h-1.1602c-0.465 0-0.83984 0.45472-0.83984 0.93164v7.207c0 0.47692 0.37484 0.86133 0.83984 0.86133h10.32c0.465 0 0.83984-0.3844 0.83984-0.86133v-7.207c0-0.47692-0.37484-0.93164-0.83984-0.93164h-1.1602v-2.0762c0-2.7274-1.3408-4.9238-4-4.9238zm0 2c1.385 0 2 1.3306 2 2.9844v2.0156h-4v-2.0156c0-1.6537 0.615-2.9844 2-2.9844zm0 7c1.1046 0 2 0.91789 2 2.0508-9.29e-4 0.74064-0.39168 1.4085-1 1.7695v1.1797a1 1 0 0 1-1 1 1 1 0 0 1-1-1v-1.1797c-0.60831-0.36104-0.99904-1.0289-1-1.7695 0-1.1329 0.89543-2.0508 2-2.0508z" fill="#dfdfdf"/>
 </g>
</svg>
